frontend/public/svg/e-commerce/card.svg

<svg width="167" height="137" viewBox="0 0 167 137" fill="none" xmlns="http://www.w3.org/2000/svg">
<path d="M80.424 1.22594C97.141 1.47141 113.859 1.66489 130.575 1.98387C138.165 2.12892 145.505 3.45067 152.504 6.67854C158.39 9.39316 162.36 13.5558 163.592 19.9066C164.512 24.2761 165.052 28.7171 165.206 33.1798C165.329 40.0385 164.649 46.9097 164.706 53.7724C164.802 65.2281 165.187 76.6828 165.499 88.1365C165.641 93.3728 165.984 98.6044 166.081 103.841C166.211 110.244 163.919 116.459 159.663 121.243C157.706 123.579 155.547 125.737 153.211 127.693C146.081 133.535 137.911 136.104 128.603 135.678C114.198 135.021 99.7775 134.628 85.359 134.353C73.3422 134.122 61.3159 134.352 49.2991 134.11C42.8669 133.979 36.4348 133.433 30.0323 132.804C26.9042 132.496 23.8247 131.622 20.7451 130.909C15.7069 129.711 11.1744 126.955 7.7916 123.033C4.1043 118.906 3.59499 113.648 2.54091 108.377C-0.723061 92.0771 1.30693 75.733 2.1746 59.4147C2.76006 48.4099 3.76434 37.4274 4.59133 26.435C4.95297 21.6274 5.05079 16.9116 7.08544 12.4695C10.7767 4.40778 17.2796 0.36471 26.0194 0.533388C44.1534 0.883873 62.2894 1.14842 80.424 1.44771C80.4221 1.3742 80.4227 1.30011 80.424 1.22594ZM11.8839 72.0562C10.3389 84.4768 10.1453 96.6485 12.3434 108.778C13.5031 115.182 16.8326 119.97 23.3796 121.616C28.3343 122.863 33.4066 124.041 38.4794 124.333C48.5056 124.91 58.5678 124.844 68.6152 125.059C74.7316 125.19 80.8487 125.304 86.9631 125.503C101.706 125.982 116.45 126.457 131.188 127.034C134.416 127.192 137.642 126.711 140.683 125.619C143.724 124.528 146.52 122.846 148.91 120.672C154.65 115.646 158.282 109.637 158.003 101.608C157.691 92.6685 157.758 83.7154 157.641 74.7689C157.63 73.9333 157.473 73.1005 157.384 72.2603C156.276 72.3102 155.407 72.3916 154.54 72.3824C135.425 72.1094 116.311 71.7865 97.1954 71.5541C77.6418 71.3165 58.0875 71.0606 38.5339 71.0297C30.0244 71.0146 21.5143 71.5305 13.0023 71.8167C12.6238 71.8672 12.2499 71.9473 11.8839 72.0562ZM157.364 52.5119C157.567 50.0041 157.859 47.8521 157.889 45.6947C157.963 40.7827 158.02 35.8648 157.869 30.956C157.727 28.017 157.424 25.0878 156.962 22.182C156.364 17.9381 153.891 15.2341 150.046 13.3288C142.999 9.83507 135.468 8.79983 127.797 8.5793C115.342 8.22487 102.881 8.0642 90.4214 7.93162C79.1632 7.81151 67.9037 7.81611 56.6449 7.80889C47.9031 7.80298 39.1206 7.36396 30.43 8.02489C20.22 8.80134 17.9215 11.4799 15.2843 19.3467C15.0453 20.0726 14.9002 20.826 14.8525 21.5888C14.1918 31.6053 13.5508 41.6233 12.9295 51.6425C12.9696 52.0454 13.0708 52.4397 13.2299 52.8119C37.307 52.4372 61.2181 51.8139 85.1306 51.7621C109.043 51.7102 132.966 52.235 157.361 52.5119H157.364Z" fill="black"/>
<path d="M109.968 86.6174C110.629 86.4389 111.304 86.3175 111.987 86.2551C119.508 86.2742 127.031 86.2912 134.552 86.3864C137.154 86.4199 139.752 86.689 142.353 86.8294C144.055 86.9213 144.919 87.829 145.073 89.4896C145.367 92.6328 145.791 95.7701 145.927 98.9198C146.036 101.442 144.811 102.76 142.205 102.943C138.512 103.201 134.801 103.332 131.099 103.317C125.429 103.294 119.76 103.104 114.092 102.969C113.112 102.982 112.133 102.911 111.165 102.758C109.749 102.478 108.725 101.577 108.712 100.091C108.674 95.6775 107.997 91.1901 109.968 86.6174ZM140.028 91.0359L111.948 90.1662C112.31 92.8087 112.641 95.2286 113.027 98.0462C122.133 97.4148 130.975 98.929 140.028 98.2504V91.0359Z" fill="black"/>
</svg>

<svg xmlns="http://www.w3.org/2000/svg" width="167" height="137" fill="none" viewBox="0 0 167 137"><path fill="#000" d="M80.424 1.226c16.717.245 33.435.439 50.151.758 7.59.145 14.93 1.467 21.929 4.695 5.886 2.714 9.856 6.877 11.088 13.228.92 4.37 1.46 8.81 1.614 13.273.123 6.858-.557 13.73-.5 20.592.096 11.456.481 22.91.793 34.365.142 5.236.485 10.467.582 15.704a25.4 25.4 0 0 1-6.418 17.402 52 52 0 0 1-6.452 6.45c-7.13 5.842-15.3 8.411-24.608 7.985-14.405-.657-28.826-1.05-43.244-1.325-12.017-.231-24.043-.001-36.06-.243-6.432-.131-12.864-.677-19.267-1.306-3.128-.308-6.207-1.182-9.287-1.895a24.63 24.63 0 0 1-12.953-7.876c-3.688-4.127-4.197-9.385-5.251-14.656-3.264-16.3-1.234-32.644-.366-48.962.585-11.005 1.59-21.988 2.416-32.98.362-4.808.46-9.523 2.494-13.965C10.777 4.408 17.28.364 26.02.533c18.134.35 36.27.615 54.405.915a5 5 0 0 1 0-.222m-68.54 70.83c-1.545 12.42-1.739 24.593.46 36.722 1.16 6.404 4.489 11.192 11.036 12.838 4.954 1.247 10.027 2.425 15.1 2.717 10.026.577 20.088.511 30.135.726 6.117.131 12.234.245 18.348.444 14.743.479 29.487.954 44.225 1.531a24.54 24.54 0 0 0 17.722-6.362c5.74-5.026 9.372-11.035 9.093-19.064-.312-8.94-.245-17.893-.362-26.84-.011-.835-.168-1.668-.257-2.508-1.108.05-1.977.132-2.844.122-19.115-.273-38.229-.596-57.345-.828-19.553-.237-39.107-.493-58.661-.524-8.51-.015-17.02.5-25.532.787q-.568.075-1.118.24m145.48-19.544c.203-2.508.495-4.66.525-6.817.074-4.912.131-9.83-.02-14.739a81 81 0 0 0-.907-8.774c-.598-4.244-3.071-6.948-6.916-8.853C143 9.836 135.469 8.8 127.798 8.58c-12.455-.354-24.916-.515-37.376-.647-11.258-.12-22.517-.116-33.776-.123-8.742-.006-17.524-.445-26.215.216-10.21.776-12.508 3.455-15.146 11.322a9 9 0 0 0-.432 2.242 7655 7655 0 0 0-1.922 30.054c.04.402.14.797.3 1.169 24.077-.375 47.988-.998 71.9-1.05s47.836.473 72.231.75z"/><path fill="#000" d="M109.968 86.617q.993-.268 2.019-.362c7.521.02 15.044.036 22.565.131 2.602.034 5.2.303 7.801.443 1.702.092 2.566 1 2.72 2.66.294 3.144.718 6.281.854 9.43.109 2.523-1.116 3.841-3.722 4.024-3.693.258-7.404.389-11.106.374-5.67-.023-11.339-.213-17.007-.348a17.3 17.3 0 0 1-2.927-.211c-1.416-.28-2.44-1.181-2.453-2.667-.038-4.413-.715-8.9 1.256-13.474m30.06 4.419-28.08-.87 1.079 7.88c9.106-.631 17.948.883 27.001.204z"/></svg>
